icons/desktop/20/letter-spacing-20.svg

<svg width="20" height="20" viewBox="0 0 20 20" fill="none" xmlns="http://www.w3.org/2000/svg">
<path d="M0.875 1C1.35825 1 1.75 1.39175 1.75 1.875V18.125C1.75 18.6082 1.35825 19 0.875 19C0.391751 19 0 18.6082 0 18.125V1.875C0 1.39175 0.391751 1 0.875 1Z" fill="black"/>
<path d="M19.125 1C19.6082 1 20 1.39175 20 1.875V18.125C20 18.6082 19.6082 19 19.125 19C18.6418 19 18.25 18.6082 18.25 18.125V1.875C18.25 1.39175 18.6418 1 19.125 1Z" fill="black"/>
<path fill-rule="evenodd" clip-rule="evenodd" d="M9.99902 4.29297C10.679 4.293 11.2927 4.70211 11.5557 5.33008L15.3877 14.4941C15.6296 15.0711 15.206 15.707 14.5811 15.707C14.2291 15.707 13.9104 15.4949 13.7744 15.1689L12.6582 12.5H7.34082L6.22461 15.1689H6.22266C6.08665 15.4949 5.76896 15.707 5.41602 15.707C4.79102 15.707 4.36837 15.0711 4.60938 14.4941L8.44238 5.33008C8.7044 4.70211 9.31805 4.29297 9.99902 4.29297ZM8.07422 10.75H11.9268L10 6.14355L8.07422 10.75Z" fill="black"/>
</svg>

<!-- This Source Code Form is subject to the terms of the Mozilla Public
   - License, v. 2.0. If a copy of the MPL was not distributed with this
   - file, You can obtain one at http://mozilla.org/MPL/2.0/. -->
<svg xmlns="http://www.w3.org/2000/svg" width="20" height="20" fill="context-fill" fill-opacity="context-fill-opacity" viewBox="0 0 20 20">
    <path d="M.875 1c.483 0 .875.392.875.875v16.25a.875.875 0 0 1-1.75 0V1.875C0 1.392.392 1 .875 1M19.125 1c.483 0 .875.392.875.875v16.25a.875.875 0 0 1-1.75 0V1.875c0-.483.392-.875.875-.875" />
    <path fill-rule="evenodd" d="M9.999 4.293c.68 0 1.294.41 1.557 1.037l3.832 9.164a.874.874 0 1 1-1.614.675L12.658 12.5H7.341l-1.116 2.669h-.002a.874.874 0 1 1-1.614-.675L8.442 5.33A1.69 1.69 0 0 1 10 4.293M8.074 10.75h3.853L10 6.144z" clip-rule="evenodd" />
</svg>
